
//================== B SIDE ====================
//PROGR.-NR.   : Manufacturing Program.1
//PART-OP      : Part Operation.1
//MACHINE TOOL : PRIMA_RAPIDOEVO1
//CATPRODUCT   : FASTTRIM_4053_LASER_FIXTURE_11_18.43.35
//CATPROCESS   : Process1.CATProcess
//DATE         : Wed Jun 01 13:53:43 2016
//USER         : TVelliquette
//SIDE	       : B SIDE

G40
G93
G90
G71
G73
G08
$(ROTARY_TABLE)(1048.745,420.487,-135,0) //B1 JUMPED OUT COMMAND

G113 X=1127.519 Y=443.264 Z=-628.589 A=1924.184 B=432.729 C=-770.468 U=1083.197 V=595.194 W=-615.368
G114 X=1104.97-.2 Y=445.23+1.3 Z=-517.46+4.8 A=1919.51+.2 B=438.61+0.9 C=-657.053-3.7 U=1058.94-.2 V=596.729+1.3 W=-503.640+4.8
G96


P70=$G89 // HOURS
P71=$G90 // MINUTES
IF P70=7 GO 10
IF P70=8 GO 15
IF P70=15 GO 10
IF P70=16 GO 15
IF P70=23 GO 10
IF P70=0 GO 15
GO 20
N10
IF P71<30 GO 20
IF P72>0 GO 20
Q(UTILITIES/COUNT_RESET.ISO)
P72=1
GO 20
N15
P72=0
N20

OB96=1
OB97=0
OB98=0

//===================  side b cycle complete  ==============
OB109 = 0 //SIDE B PART PASS OFF
OB110 = 0 //SIDE B PART COMPLETE OFF
//===================  side b cycle complete  ==============

$(WORK_TYPE) (2)
<material name="HSS_N2" thickness="1.6" set="1" message="" sheet="" >
$(LASER_ON)(1)
$(SENSOR_INIT)
$(SENSOR_ON)(1)
$(STOP_C_ON)
//$(ACCURACY)(100)
$(HOLE_ACCURACY)(2)
//$(MARKING_PIECE)
$(CHECK_PP)(5,&0300, &1DDF)
//$(CLEANTIP)(1)
//$(SPLITCAB)
F173000
//$(CLOSE_CLAMPS)(99)
$(OPEN_CLAMPS) (4,8)


//GO 100
//G01 X1321.589 Y428.339 Z-455.777 A0.0 B0.0 
//Start generation of : SAFE MOVE S1.6
G94 Z-3
$(LH_ON)(0.2)
G01 X1048.416 Y419.414 Z-497.247 A-135.0 B0 
G01 X1048.745 Y420.487 Z-671.939 A-135.0 B0 F173000
$(APPROACH_MC)(1049.28, 419.798, -695.92, -135.0, 0.0)
G08
$(SENSOR_ON)(1)
G01 X=1045 Y=419.414 Z=-697.247 A=-135.0 B=0.0 
$(SENSOR_LOCK)
G09
G01 X=1040 Y=423.485 Z=-697.434 A=-135.0 B=0.0 
G01 X1036.046 Y432.004 Z-697.825 A-135.0 B0.0
$(WORK_ON)(2, 12)
G01 X1041.369-1 Y424.475+2 Z-697.61 A-135.0 B0.0 
G104 X1040.32 Y416.035-1 Z-697.347 A-135.0 B0.0 I1039.09 J420.471-1 K-697.532
$(SENSOR_ON)(1)
G01 X1062.754 Y387.37 Z-695.757 A-135.0 B0.0 
G104 X1065.989 Y383.238 Z-698.482 A0.373 B69.721 I1065.418 J383.965 K-697.226
G94
G01 X1068.933 Y379.478 Z-708.816 A0.4483 B70.0847
G08
$(WORK_OFF)(2)
G09
F173000
$(RETRACT_MC)(1069.006,370.077,-705.409,0.4483,70.0847)
//END of Geometry.1
//START of Geometry.1
$(SENSOR_ON)(1)
G94 X+.5 Z-2
G01 X1095.295 Y366.059 Z-687.862 A0.612 B69.7132
$(LH_ON)(0.2)
$(APPROACH_MC)(1095.095,384.817,-694.797,0.612,69.7132)
G08
$(WORK_ON)(2,2)//**1
G01 X1095.014 Y384.863 Z-694.761 A0.612 B69.7132
G09
G104 X1101.044 Y392.247 Z-675.298 A0.5742 B69.0593 I1100.594 J390.295 K-680.41
G104 X1119.367 Y392.37 Z-675.524 A0.7372 B69.1423 I1118.692 J393.585 K-672.322
G104 X1110.531 Y381.693 Z-703.945 A0.79 B70.0908 I1114.268 J384.164 K-697.302
G104 X1095.014 Y384.863 Z-694.761 A0.612 B69.7132 I1093.849 J383.716 K-697.839
G08
$(WORK_OFF)(1)
$(LH_ON)(0.3)
G09
F173000
$(RETRACT_MC)(1095.114,375.484,-691.294,0.612,69.7132)
G94 
//END of Geometry.1
//START of Geometry.1
G01 X1069.079 Y360.674 Z-702.003 A0.4483 B70.0847
$(APPROACH_MC)(1068.932,379.478,-708.816,0.4483,70.0847)
G08
$(WORK_ON)(2,2)
G01 X1068.933 Y379.478 Z-708.816 A0.4483 B70.0847
G09
$(LH_ON)(0.2)
g94 z+.3
G01 X1071.065 Y376.755 Z-716.437 A0.5025 B70.3503
//G104 X1071.813 Y375.8 Z-718.151 A-0.1586 B70.4861 I1071.39 J376.34 K-717.351
//G104 X1072.651 Y374.73 Z-720.08 A0.5343 B70.4861 I1072.287 J375.194 K-719.052
G104 X1081.448 Y363.496 Z-753.072 A0.7612 B71.5906 I1077.11 J369.035 K-736.533
G104 X1088.905 Y362.096 Z-757.613 A0.8455 B71.7638 I1086.542 J362.137 K-757.386
G104 X1109.63 Y362.626 Z-757.028 A1.0201 B71.8287 I1099.268 J362.355 K-757.318


//*****************TRIM CUT*******************
//G01 X1109.63 Y362.626 Z-757.028 A1.0201 B71.8287
//$(SENSOR_LOCK)
//G01 X1109.63 Y362.626-3 Z-757.028-10 A1.0201 B71.8287
//G01 X1109.63 Y362.626 Z-757.028+.5 A1.0201 B71.8287
//G01 X1109.63 Y362.626 Z-757.028 A1.0201 B71.8287
//$(SENSOR_ON)(0.8)
//*****************TRIM CUT*******************
g94 z-2.3


G104 X1115.306 Y364.231 Z-752.469 A1.0486 B71.7079 I1115.021 J363.926 K-753.376
G104 X1117.439 Y367.748 Z-742.046 A1.021 B71.385 I1116.38 J365.982 K-747.256
G104 X1120.801 Y369.65 Z-736.605 A1.0257 B71.2234 I1119.617 J369.239 K-737.752
G104 X1144.249 Y376.524 Z-717.97 A1.1452 B70.7061 I1132.526 J373.06 K-727.279
G104 X1153.213 Y379.756 Z-711.416 A1.1928 B70.5136 I1151.845 J379.432 K-712.253
G104 X1170.752 Y383.064 Z-703.201 A1.3089 B70.3045 I1166.157 J382.374 K-704.841
$(WORK_ON)(5,2)
G104 X1182.936 Y383.673 Z-702.306 A1.4106 B70.321 I1179.869 J383.702 K-702.016
G104 X1395.906 Y380.58 Z-737.912 A3.4269 B72.2704 I1289.479 J381.173 K-719.678

//******************NEW SCRAP CUT********11_20_17
//G01 X1395.906 Y380.58-.5 Z-737.912 A3.4269 B72.2704
//$(SENSOR_LOCK)
//G01 X1395.906 Y380.58-5 Z-737.912-15 A3.4269 B72.2704
//G01 X1395.906 Y380.58-.5 Z-737.912 A3.4269 B72.2704
//$(SENSOR_ON)(0.8)
//******************NEW SCRAP CUT********11_20_17


G104 X1401.775 Y381.65 Z-735.68 A3.4728 B72.2171 I1399.186 J380.88 K-737.592
//g94 
G104 X1414.181 Y381.716 Z-737.866 A3.5942 B72.3309 I1412.108 J382.593 K-734.722 #(START_CL4_OPEN)
G104 X1418.944 Y380.712 Z-741.976 A3.6527 B72.4813 I1415.968 J380.974 K-740.551 #(START_CL8_OPEN)
G104 X1575.374 Y384.417 Z-770.261 A5.3684 B73.9167 I1497.196 J381.92 K-756
$(CLOSE_CLAMPS) (3) 
G104 X1581.115 Y385.561 Z-768.188 A5.4291 B73.8724 I1578.56 J384.796 K-769.991
G104 X1593.294 Y386.088 Z-770.423 A5.5834 B73.9847 I1591.201 J386.766 K-767.375
//g94 y-.2 z-.3
g94 y-.2 z+.2
G104 X1598 Y385.405 Z-774.415 A5.6548 B74.1245 I1595.097 J385.516 K-773.028
G104 X1744.124 Y395.243 Z-801.054 A7.851 B75.4731 I1671.099 J389.518 K-787.831
G104 X1749.709 Y396.544 Z-799.046 A7.9445 B75.4402 I1747.218 J395.741 K-800.79 #(START_CL3_CLOSE)
G104 X1761.678 Y397.683 Z-801.175 A8.1747 B75.5559 I1759.527 J398.139 K-798.248
G104 X1766.377 Y397.368 Z-805.014 A8.2805 B75.6874 I1763.524 J397.296 K-803.692

//*****************TRIM CUT*******************
//G01 X1766.377 Y397.368 Z-805.014 A8.2805 B75.6874
//$(SENSOR_LOCK)
//G01 X1766.377 Y397.368-3 Z-805.014-13 A8.2805 B75.6874 F120000
//G01 X1766.077 Y397.368-3 Z-805.014 A8.2805 B75.6874
//G01 X1766.077 Y397.368-3 Z-805.014+1 A8.2805 B75.6874
//F17000
//$(SENSOR_ON)(0.8)
//*****************TRIM CUT*******************

G104 X1832.327 Y405.027 Z-816.441 A10.0382 B76.3762 I1799.374 J400.911 K-810.796
$(CLOSE_CLAMPS) (4)
G104 X1836.293 Y406.255 Z-817.296 A10.1871 B76.4226 I1835.474 J406.073 K-817.139
G104 X1885.478 Y414.127 Z-825.382 A12.6077 B77.0049 I1860.923 J409.909 K-821.387
G104 X1893.135 Y413.188 Z-826.053 A13.0763 B77.0925 I1892.744 J413.131 K-825.958
G104 X1897.298 Y413.207 Z-830.151 A13.3779 B77.241 I1895.72 J413.432 K-827.589
g94 z-0.5
G104 X1897.576 Y412.82 Z-832.103 A13.4056 B77.2978 I1897.507 J413.032 K-831.121
G104 X1897.18 Y409.309 Z-847.098 A13.4458 B77.7055 I1897.385 J411.052 K-839.598
$(LH_ON)(0.2)
G104 X1902.402 Y409.185 Z-853.358 A13.8401 B65.9147 I1901.34 J408.986 K-853.078
G104 X1949.093 Y420.777 Z-860.527 A17.7649 B65.4722 I1925.841 J414.547 K-857.032
G104 X1953.689 Y423.251 Z-861.452 A18.2207 B65.5455 I1952.551 J422.78 K-861.259 #(START_CL4_CLOSE)
$(WORK_ON)(2,2)
G104 X1967.218 Y427.471 Z-863.337 A19.4947 B65.6859 I1960.464 J425.32 K-862.408
G104 X1973.225 Y430.78 Z-857.956 A20.0547 B65.5901 I1971.433 J429.248 K-862.074 
//g94 x-.2 z0.5
g94 x+.2 y-1.5 z+2.5
$(OPEN_CLAMPS) (1)
(* $(LH_ON)(0.2)
G104 X1973.25 Y442.304 Z-807.697 A20.0484 B65.1945 I1973.297 J436.386 K-832.791 
$(LH_OFF)
$(ACCURACY)(100)
G104 X1973.683 Y442.283 Z-802.648 A6.326 B85.298 I1973.356 J442.6 K-805.162 
$(WORK_ON)(2,5)
G01 X1976.124 Y438.784 Z-788.809 A6.4341 B105.297 
(* $(LH_ON)(0.2)
G104 X1976.372 Y439.309 Z-783.589 A18.8279 B64.6946 I1976.417 J438.592 K-786.161  
G104 X1974.333 Y448.385 Z-768.479 A18.0502 B57.5884 I1975.51 J443.472 K-775.788 
G104 X1971.291 Y457.167 Z-766.549 A18.537 B-25.6812 I1972.187 J454.902 K-765.729 
G01 X1958.334 Y488.411 Z-785.078 A20.09 B-25.6053 
G104 X1956.529 Y493.297 Z-785.352 A25.0299 B23.7227 I1957.398 J490.809 K-785.809  
$(LH_ON)(0.2)
G104 X1952.095 Y506.807 Z-779.468 A32.0052 B23.2676 I1954.315 J500.047 K-782.396 
g94 x-.2 z+.5
//*****************TRIM CUT*******************
//G01 X1952.095 Y506.807 Z-779.468 A32.0052 B23.2676
//$(SENSOR_LOCK)
//G01 X1952.095 Y506.807+18 Z-779.468+7 A32.0052 B23.2676
//G01 X1952.095 Y506.807 Z-779.468+.5 A32.0052 B23.2676
//G01 X1952.095 Y506.807 Z-779.468 A32.0052 B23.2676
//$(SENSOR_ON)(0.8)
//*****************TRIM CUT*******************

g94 y-3 x+1
G104 X1944.947+.2 Y510.027-.2 Z-776.558 A32.9823 B23.0341 I1947.176 J510.369 K-776.997 
g94 y-2.8
G104 X1932.293 Y505.753 Z-774.875 A32.9512 B22.8887 I1938.629 J507.859 K-775.727 
G104 X1927.802 Y503.876 Z-773.21 A33.9394 B22.8323 I1928.985 J504.308 K-773.506
$(WORK_ON)(5,5)
$(LH_ON)(0.5)
G104 X1840.143 Y482.133 Z-759.449 A33.7009 B21.621 I1884.262 J491.566 K-766.754  #(START_CL1_OPEN)
$(OPEN_CLAMPS) (2)
g94 x-.5 y-2.1
G104 X1750.509 Y470.567 Z-743.165 A33.4097 B20.1119 I1754.75 J470.943 K-743.954


//*****************TRIM CUT*******************
//G01 X1750.509 Y470.567 Z-743.165 A35.7009 B20.1119
//$(SENSOR_LOCK)
//G01 X1750.509 Y470.567+20 Z-743.165+7 A35.7009 B20.1119
//G01 X1750.509 Y470.567 Z-743.165+1 A35.7009 B20.1119
//$(SENSOR_ON)(0.8)
//*****************TRIM CUT*******************

G104 X1659.94 Y464.849 Z-726.519 A33.055 B18.4458 I1705.267 J467.235 K-734.771
G104 X1569.071 Y461.641 Z-710.897 A34.6225 B16.7247 I1614.541 J463.036 K-718.543
G104 X1443.461 Y459.658 Z-691.718 A33.8471 B14.3073 I1506.326 J460.328 K-700.949 
G104 X1372.533 Y459.928 Z-682.241 A33.3052 B12.5473 I1383.69 J459.703 K-683.668 #(START_CL2_OPEN)
G94 x-1 y-.5
G104 X1271.644 Y500.021 Z-669.412 A33.3052 B0.0 I1279.917 J492.478 K-670.033

//*****************TRIM CUT*******************
//G104 X1271.644 Y500.021 Z-669.412 A33.3052 B0.0
//$(SENSOR_LOCK)
//G104 X1271.644+30 Y500.021+25 Z-669.412+5 A33.3052 B0.0
//G104 X1271.644 Y500.021 Z-669.412+.5 A33.3052 B0.0
//G104 X1271.644 Y500.021 Z-669.412 A33.3052 B0.0
//$(SENSOR_ON)(0.8)
//*****************TRIM CUT*******************


g94 x+1 z-2 
G104 X1241.844 Y533.642 Z-669.218 A33.3052 B0.0 I1256.192 J516.34 K-668.931
G104 X1234.079 Y535.067 Z-669.383 A33.3052 B0.0 I1236.087 J535.814 K-669.362
G01 X1223.671 Y528.879 Z-669.437 A33.3052 B0.0
G104 X1213.918 Y529.111 Z-671.237 A33.3052 B0.0 I1215.627 J527.617 K-671.165
G104 X1192.847 Y556.308 Z-672.595 A33.3052 B0.0 I1203.374 J542.705 K-671.875
G104 X1193.524 Y564.383 Z-672.854 A33.3052 B0.0 I1192.205 J562.606 K-672.828
$(CLOSE_CLAMPS) (1)
G01 X1204.172 Y574.217 Z-672.908 A33.3052 B0.0
G104 X1205.341 Y581.547 Z-673.13 A33.3052 B0.0 I1206.01 J579.672 K-673.047
G01 X1202.345 Y585.634 Z-673.351 A33.3052 B0.0
G104 X1194.481 Y587.19 Z-673.615 A33.3052 B0.0 I1196.53 J587.944 K-673.586
G01 X1181.036 Y579.196 Z-673.699 A33.3052 B0.0
G104 X1173.107 Y580.839 Z-673.967 A33.3052 B0.0 I1174.71 J579.319 K-673.872
G01 X1142.603 Y623.134 Z-676.243 A33.3052 B0.0
G104 X1143.402 Y631.047 Z-676.495 A33.3052 B0.0 I1142.105 J629.316 K-676.47
G01 X1154.272 Y641.086 Z-676.55 A33.3052 B0.0
G104 X1155.02 Y649.068 Z-676.806 A33.3052 B0.0 I1155.978 J647.108 K-676.712
G01 X1152.553 Y652.389 Z-676.986 A33.3052 B0.0
G104 X1144.579 Y653.907 Z-677.252 A33.3052 B0.0 I1146.647 J654.704 K-677.224
G01 X1132.63 Y646.501 Z-677.316 A33.3052 B0.0
G104 X1126.884 Y646.185 Z-677.459 A33.3052 B0.0 I1129.796 J645.623 K-677.361
$(SENSOR_LOCK)
G104 X1122.267 Y646.412 Z-677.59 A33.3052 B0.0 I1124.598 J646.753 K-677.539
G01 X1112.265 Y648.109 Z-677.916 A33.3052 B0.0
G08
G01 X1112.434 Y649.094 Z-677.946 A33.3052 B0.0
$(WORK_OFF)(2)
G09
F173000
$(RETRACT_MC)(1111.097,650.818,-627.993,33.3052,0.0)
$(CLOSE_CLAMPS) (1,8)
$(SENSOR_ON)(2.0)
$(LH_ON)(0.5)
//END of Geometry.1
//START of CIRCLE.1  
G94 X+.2 y+.4
G01 X1111.097 Y650.818 Z-595 A33.3052 B0.0
G01 X1079.628 Y592.452 Z-595.297 A33.3052 B0.0
$(APPROACH_MC)(1079.628,592.452,-615.297,33.3052,0.0)
G08
$(WORK_ON)(2,2)
$(HOLE) (1083.184,595.209,-615.297,1083.184,595.209,-595.297,5.75,10)
$(WORK_OFF)(2)
G09
F173000
$(RETRACT_MC)(1078.837,591.84,-605.297,33.3052,0.0)
//END of CIRCLE.1
//START of CIRCLE.2
G01 X1048.8 Y565.37 Z-605.297 A33.3052 B0.0 
$(APPROACH_MC)(1048.8,565.37,-615.297,33.3052,0.0)
G08
$(WORK_ON)(2,2)
$(HOLE) (1046.043,568.927,-615.297,1046.043,568.927,-595.297,5.7,10)
$(WORK_OFF)(2)
G09
F50000
$(RETRACT_MC)(1049.413, 564.58, -575.297, 33.3052, 0.0)
G94
//END of CIRCLE.2
//START of CIRCLE.3
G94 x+.2 y+.2 
G01 X=1099.472 Y=489.239 Z=-575.297 A=33.3052 B=0.0 
$(APPROACH_MC)(1099.472,489.239,-628.518,33.3052,0.0)
//$(auto_pp_calsens)(40)
G08
$(WORK_ON)(2,2)
$(HOLE) (1096.715,492.796,-628.518,1096.715,492.796,-608.518,5.7,10)
$(WORK_OFF)(2)
G09
F173000
//$(RETRACT_MC)(1100.085,488.449,-618.518,33.3052,0.0)
g94
//END of CIRCLE.3
//START of CIRCLE.4
G01 X=1127.4 Y=447.769 Z=-628.518 A=33.3052 B=0.0
//$(APPROACH_MC)(1127.4,447.769,-628.518,33.3052,0.0)
G08
$(WORK_ON)(2,2)
$(HOLE) (1127.706,443.279,-628.518,1127.706,443.279,-608.518,5.7,10)
$(WORK_OFF)(2)
G09
F173000
//$(RETRACT_MC)(1127.132,448.766,-618.518,33.3052,0.0)
//END of CIRCLE.4
//START of CIRCLE.5
//G01 X=1130.443 Y=473.7 Z=-618.518 A=33.3052 B=0.0
G01 X=1150.443 Y=497.751 Z=-628.518 A=33.3052 B=0.0 
//$(APPROACH_MC)(1150.443,497.751,-628.518,33.3052,0.0)
G08
$(WORK_ON)(2,2)
$(HOLE) (1146.886,494.994,-628.518,1146.886,494.994,-608.518,5.7,10)
$(WORK_OFF)(2)
G09
F173000
$(RETRACT_MC)(1151.233,498.363,-618.518,33.3052,0.0)
//END of CIRCLE.5
//START of CIRCLE.6
(* G01 X=1151.233 Y=518.363 Z=-618.518 A=33.3052 B=0.0
G01 X1202.276 Y462.066 Z-609.151 A33.3052 B0.0
$(APPROACH_MC)(1202.276,462.066,-629.151,33.3052,0.0)
G08
//M00
$(WORK_ON)(2,2)
//M00
$(HOLE) (1195.126,456.524,-629.151,1194.592,457.213,-609.17,10.1,10)
//M00
$(WORK_OFF)(2)
G09
F173000
$(RETRACT_MC)(1203.066,462.678,-619.151,33.3052,0.0)
//END of CIRCLE.6
//START of CIRCLE.7
G94 x-.5 y+.3 Z-.8
G01 X=1203.066 Y=482.678 Z=-599.151 A=33.3052 B=0.0
G01 X1329.009 Y444.109 Z-654.868+1.5 A-20.3267 B-48.9909
$(APPROACH_MC)(1323.766,429.957,-667.991+1.5,-20.3267,-48.9909)
G08
$(WORK_ON)(3,1)
$(HOLE) (1322.282,430.121,-667.575+1.5,1327.525,444.273,-654.452+1.5,2.7,10)
$(WORK_OFF)(3)
G09
F173000
$(RETRACT_MC)(1327.345,436.927,-661.698+1.5,-20.3267,-48.9909)
//END of CIRCLE.7
G94
//START of Geometry.8
$(SENSOR_ON)(1)
G94 y-.5 z-.8
G01 X=1326.345 Y=436.927 Z=-601.698 A=-20.3267 B=-48.9909
G01 X1307.335 Y371.961 Z-642.379 A5.9374 B54.6108
$(APPROACH_MC)(1305.649,388.178,-653.961,5.9374,54.6108)
G08
$(WORK_ON)(3,2)
$(LH_ON)(0.3)
G01 X1304.91 Y388.023 Z-654.617 A5.9374 B54.6108
G09
G104 X1305.199 Y390.86 Z-650.983 A5.9374 B54.6108 I1304.109 J389.377 K-652.674
G104 X1305.8 Y391.177 Z-650.695 A5.9374 B54.6108 I1305.488 J391.028 K-650.825
G104 X1305.911 Y391.236 Z-650.642 A5.9374 B54.6108 I1305.858 J391.204 K-650.671
G104 X1306.104 Y391.481 Z-650.385 A5.9374 B54.6108 I1306.038 J391.349 K-650.528
G104 X1306.79 Y394.579 Z-647.191 A5.9374 B54.6108 I1306.452 J392.995 K-648.756
G104 X1307.348 Y395.4 Z-646.491 A5.9374 B54.6108 I1306.974 J395.017 K-646.797
G104 X1310.237 Y394.488 Z-647.791 A5.9374 B54.6108 I1309.338 J395.731 K-646.481
G104 X1309.545 Y391.372 Z-651.019 A5.9374 B54.6108 I1309.896 J392.894 K-649.372
G104 X1309.7 Y391.054 Z-651.414 A5.9374 B54.6108 I1309.564 J391.197 K-651.226
G104 X1309.473 Y388.164 Z-655.087 A5.9374 B54.6108 I1310.572 J389.614 K-653.316
G104 X1304.91 Y388.023 Z-654.617 A5.9374 B54.6108 I1307.129 J387.538 K-655.628
G08
G01 X1305.662 Y388.456 Z-654.12 A5.9374 B54.6108
$(WORK_OFF)(3)
G09
F173000
$(RETRACT_MC)(1306.505,380.347,-648.329,5.9374,54.6108)
G94 
//END of Geometry.8
//START of CIRCLE.9
G94 x-.1 z-1.8
G01 X1316.587 Y368.293 Z-681.359 A-4.3575 B105.4032
$(APPROACH_MC)(1318.052,387.519,-674.047,-4.3575,105.4032-5)
G08
$(WORK_ON)(3,1)
$(HOLE) (1318.071,387.93,-675.541,1316.606,368.704,-680.853,2.7,10)
$(WORK_OFF)(2)
G09
F173000
$(RETRACT_MC)(1317.306,377.64,-675.739,-4.3575,105.4032-5)
G94
//END of CIRCLE.9
//START of RECTANGLE.10
g94 y-.5 
G01 X1464.011 Y348.128 Z-649.973 A6.4213 B52.9245 F150000
G01 X1460.221 Y381.809 Z-671.214 A6.4213 B52.9245
$(APPROACH_MC)(1459.273,390.23,-676.525,6.4213,52.9245)
G08
$(WORK_ON)(2,2)
$(RECT) (1446.459,388.443,-677.071,1461.125,393.605,-671.504,1460.442,391.039,-675.449,6.001)
$(WORK_OFF)(2)
G09
F173000
$(RETRACT_MC)(1465.002,348.257,-649.925,6.4213,52.9245)
G94
//END of RECTANGLE.10
//START of CIRCLE.11
G94 x-1 y-.2 Z-.9 
G01 X1946.283 Y416.546 Z-738.688 A28.2626 B54.0652 F150000 //F173000
$(APPROACH_MC)(1939.015,430.809,-770.425,28.2626,54.0652)
G08
$(LH_ON)(0.1)
$(WORK_ON)(2,2)
$(HOLE) (1941.772,432.745,-770.397,1950.24,418.481,-758.66,5.09,10)//orig 5.1
$(WORK_OFF)(2)
G09
F173000
$(RETRACT_MC)(1940.97,423.199,-764.563,28.2626,54.0652)
$(LH_ON)(0.3)
G94
//END of CIRCLE.11
$(CLOSE_CLAMPS) (8)
//End of generation of : S1 ALL HOLES
//GO 101
n100
G93

//******************************************************B2******************************************************//
G113 X=2952.481 Y=443.264 Z=-628.589 A=2137.816 B=432.729 C=-770.468 U=2996.803 V=595.194 W=-615.368
G114 X=2934.88+.9 Y=448.83-1.8 Z=-517.64+0.3 A=2119.49+.8 B=435.92+4.1 C=-658.51 U=2979.13+.9 V=600.27-1.8 W=-504.956+0.3
G96


$(SENSOR_ON)(1)
g94 x+1.5 Y-.4 z-.4
G01 X2133.718 Y416.546 Z-758.69 A151.7373 B-54.0652
$(APPROACH_MC)(2141.386,430.809,-771.027,151.7373,-54.0652)
G08
$(WORK_ON)(2,2)
$(HOLE) (2137.328,432.745,-770.999,2130.16,418.481,-760.261,5.14,10)
$(WORK_OFF)(2)
//IF P109=1 GO 300
G09
F173000
$(RETRACT_MC)(2138.43,423.199,-766.165,151.7373,-54.0652)
G94
//END of CIRCLE.1
//START of RECTANGLE.2
G94 X-.3 y+1.9 z+.5
G01 X=2640.652 Y=348.236 Z=-620 A=173.518 B=-55.677 LF=173000 
G01 X2644.468 Y381.822 Z-666.896 A173.518 B-55.677
$(APPROACH_MC)(2645.422,390.219,-672.243,173.518,-55.677)
G08
$(WORK_ON)(2,2)
$(RECT) (2633.545,388.477,-677.097,2645.48,393.611,-666.905,2646.161,391.029,-670.838,5.999)
$(WORK_OFF)(2)
G09
F150000
$(RETRACT_MC)(2641.569,348.362,-645.128,173.518,-55.677)
G94
//END of RECTANGLE.2
//START of CIRCLE.3
G94 Z+3.6 X+.2
G01 X2763.537 Y369.125 Z-684.34 A184.3575 B-105.4032 F173000
$(APPROACH_MC)(2762.072,388.351,-679.027,184.3575,-105.4032)
G08
$(WORK_ON)(3,1)
$(HOLE) (2761.928,387.93,-677.543,2763.393,368.704,-682.855,2.7,10)
$(WORK_OFF)(2)
G09
F173000
$(RETRACT_MC)(2762.897,379.01,-682.641,184.3575,-105.4032)
$(OPEN_CLAMPS)(6)
G94
//END of CIRCLE.3
//START of Geometry.4
$(LH_ON)(0.3)
g94 X+.4 y+1.5 
G01 X2772.663 Y371.96 Z-642.382 A174.0626 B-54.6108
$(APPROACH_MC)(2774.35,388.177,-653.965,174.0626,-54.6108)
G08
$(WORK_ON)(3,2)
G01 X2775.09 Y388.023 Z-654.619 A174.0626 B-54.6108
G09
G104 X2770.527 Y388.164 Z-655.089 A174.0626 B-54.6108 I2772.871 J387.538 K-655.63
G104 X2770.3 Y391.054 Z-651.416 A174.0626 B-54.6108 I2769.428 J389.614 K-653.318
G104 X2770.455 Y391.372 Z-651.021 A174.0626 B-54.6108 I2770.436 J391.197 K-651.228
G104 X2769.763 Y394.488 Z-647.793 A174.0626 B-54.6108 I2770.104 J392.894 K-649.374
G104 X2772.651 Y395.4 Z-646.493 A174.0626 B-54.6108 I2770.661 J395.731 K-646.483
G104 X2773.21 Y394.579 Z-647.193 A174.0626 B-54.6108 I2773.026 J395.016 K-646.799
G104 X2773.895 Y391.48 Z-650.387 A174.0626 B-54.6108 I2773.548 J392.995 K-648.758
G104 X2774.089 Y391.235 Z-650.644 A174.0626 B-54.6108 I2773.962 J391.349 K-650.53
G104 X2774.2 Y391.177 Z-650.697 A174.0626 B-54.6108 I2774.142 J391.204 K-650.673
G104 X2774.801 Y390.86 Z-650.985 A174.0626 B-54.6108 I2774.512 J391.028 K-650.827
G104 X2775.09 Y388.023 Z-654.619 A174.0626 B-54.6108 I2775.891 J389.376 K-652.676
G08
G01 X2774.339 Y388.457 Z-654.121 A174.0626 B-54.6108
$(WORK_OFF)(2)
G09
F173000
$(RETRACT_MC)(2773.496, 380.348, -628+1, 174.0626, -54.6108)
g94
//END of Geometry.4
//START of CIRCLE.5
//G94 X-.6 Z+2.6
G94 X-.9 Z+3.1
G01 X=2752.568 Y=444.981+5 Z=-640 A=200 B=49.0215 //#(START_CL6_OPEN) LF10000
$(APPROACH_MC)(2757.93, 430.866+0.5, -668.695+2, 200, 49.0215)
G08
$(WORK_ON)(3,1)
$(HOLE)(2758.715, 430.131, -667.583+1, 2753.352, 444.245, -654.467+1, 2.7, 10)
$(WORK_OFF)(2)
G09
F173000
$(RETRACT_MC)(2754.742, 438.399, -662.856+1, 200, 49.0215)
G94 
//END of CIRCLE.5
//START of CIRCLE.7
//G94 x-0.6
G94 x-0.6 y+.1
G01 X=2936.67 Y=492.237 Z=-580 A=200.8038 B=0.0
$(APPROACH_MC)(2936.67, 492.237, -628.52, 200.8038, 0.0)
G08
$(WORK_ON)(2,2)
$(HOLE)(2933.113, 494.994, -628.52, 2933.113, 494.994, -608.52, 5.7, 10)
$(WORK_OFF)(2)
G09
F173000
//$(RETRACT_MC)(2937.46,491.624,-618.52,200.8038,0.0)
G94
//END of CIRCLE.7
//START of CIRCLE.11
//G94 X-.5
G94 X-.6 y+.3
G01 X=2955.251 Y=446.836 Z=-625.52 A=200.8038 B=0.0 
$(APPROACH_MC)(2955.251,446.836,-628.52,200.8038,0.0)
G08
$(WORK_ON)(2,2)
$(HOLE)(2952.494, 443.279, -628.52, 2952.494, 443.279, -608.52, 5.7, 10)
$(WORK_OFF)(2)
G09
F173000
//$(RETRACT_MC)(2955.863,447.626,-618.52,200.8038,0.0)
G94
//END of CIRCLE.11
//START of CIRCLE.8
//G94 X-.7 Y+.1
G94 X-.8 Y+.4
G01 X=2986.042 Y=496.352 Z=-628.52 A=200.8038 B=0.0 
$(APPROACH_MC)(2986.042,496.352,-628.52,200.8038,0.0)
G08
$(WORK_ON)(2,2)
$(HOLE)(2983.285, 492.796, -628.52, 2983.285, 492.796, -608.52, 5.7, 10)
$(WORK_OFF)(2)
G09
F173000
$(RETRACT_MC)(2986.654, 497.143, -575, 200.8038, 0.0)
//END of CIRCLE.8
G94
//START of CIRCLE.9
//G94 y+.3 X-.2
G94 y+.5 X-.3
G01 X=3030.4 Y=571.684 Z=-575 A=200.8038 B=0.0 
$(APPROACH_MC)(3030, 571.684, -615.299, 200.8038, 0.0)
G08
$(WORK_ON)(2,2)
$(HOLE)(3033.557, 568.927, -615.299, 3033.957, 568.927, -595.299, 5.7, 10)
$(WORK_OFF)(2)
G09
F173000
//$(RETRACT_MC)(3029.21,572.296,-615.299,200.8038,0.0)
G94
//END of CIRCLE.9
//START of CIRCLE.10
//G94 X-.3 Y+.2
G94 X-.2 y+.4
G01 X=2993.259 Y=597.966 Z=-615 A=200.8038 B=0.0 
//$(APPROACH_MC)(2993.259-0.4,597.966,-615.299,200.8038,0.0)
G08
$(WORK_ON)(2,2)
$(HOLE) (2996.816-0.4,595.209,-615.299,2996.816,595.209,-595.299,5.7,10)
$(WORK_OFF)(4)
G09
F173000
$(RETRACT_MC)(2992.469-0.4, 598.579, -585, 200.8038, 0.0)
G94
//END of CIRCLE.10
$(OPEN_CLAMPS) (5)
//End of generation of : S2 ALL HOLES
//START of Geometry.1
$(SENSOR_ON)(1)
$(LH_ON)(0.2)
//g94  y+0.8 z+1.3
G01 X=2956.915 Y=643.252 Z=-625 A=200.8038 B=0.0 
$(APPROACH_MC)(2956.38,642.563,-677.423,200.8038,0.0)
G08
$(SENSOR_ON)(1)
G01 X2956.38 Y642.564 Z-677.423 A200.8038 B0.0
$(SENSOR_LOCK)
G09
G01 X2958.57 Y644.155 Z-677.537 A200.8038 B0.0
//G94 X+0.5
G01 X2962.255 Y646.834 Z-677.728 A200.8038 B0.0
G01 X2959.175 Y645.668+1.5 Z-677.605 A200.8038 B0.0
$(WORK_ON)(5,12)
$(LH_ON)(0.5) 
G104 X2953.116-2 Y646.185 Z-677.461 A200.8038 B0.0 I2956.214 J646.738 K-677.563
G94 x-1
G104 X2947.37 Y646.501 Z-677.318 A200.8038 B0.0 I2950.204 J645.623 K-677.363
$(SENSOR_ON)(0.8)
G01 X2935.421 Y653.907 Z-677.254 A200.8038 B0.0
G104 X2927.447 Y652.389 Z-676.988 A200.8038 B0.0 I2929.076 J653.89 K-677.084
G01 X2924.98 Y649.068 Z-676.808 A200.8038 B0.0
G104 X2925.728 Y641.086 Z-676.552 A200.8038 B0.0 I2924.422 J642.836 K-676.578
G01 X2936.598 Y631.047 Z-676.496 A200.8038 B0.0
G104 X2938.397 Y623.134 Z-676.245 A200.8038 B0.0 I2938.322 J625.086 K-676.337
G01 X2906.893 Y580.839 Z-673.969 A200.8038 B0.0
G104 X2898.964 Y579.196 Z-673.701 A200.8038 B0.0 I2901.039 J578.438 K-673.73
G01 X2885.519 Y587.19 Z-673.617 A200.8038 B0.0
G104 X2877.655 Y585.634 Z-673.353 A200.8038 B0.0 I2879.261 J587.111 K-673.447
G104 X2874.659 Y581.547 Z-673.132 A200.8038 B0.0 I2874.866 J581.89 K-673.149
G104 X2875.828 Y574.216 Z-672.91 A200.8038 B0.0 I2874.609 J575.793 K-672.932
G01 X2886.476 Y564.383 Z-672.856 A200.8038 B0.0
G104 X2887.153 Y556.308 Z-672.597 A200.8038 B0.0 I2888.157 J558.276 K-672.691
G104 X2866.082 Y529.111 Z-671.239 A200.8038 B0.0 I2876.625 J542.705 K-671.877
G104 X2858.313 Y527.68 Z-669.847 A200.8037 B0.0 I2858.76 J527.429 K-670.055
G104 X2856.329 Y528.879 Z-669.439 A200.8038 B0.0 I2857.338 J528.274 K-669.545
G01 X2845.921 Y535.067 Z-669.385 A200.8038 B0.0
G104 X2838.156 Y533.642 Z-669.22 A200.8038 B0.0 I2839.768 J535.053 K-669.275
G104 X2808.355 Y500.021 Z-669.414 A200.8038 B0.0 I2823.808 J516.34 K-668.933
G104 X2772.326 Y473.693 Z-673.381 A200.8038 B0.0 I2782.087 J479.176 K-672.051


//*****************TRIM CUT*******************
//G01 X2772.326 Y473.693 Z-673.381 A200.8038 B0.0 
//$(SENSOR_LOCK)
//G01 X2772.326-20 Y473.693+25 Z-673.381+2 A200.8038 B0.0 
//G01 X2772.326 Y473.693 Z-673.381+.7 A200.8038 B0.0 
//G01 X2772.326 Y473.693 Z-673.381 A200.8038 B0.0 
//$(SENSOR_ON)(0.8)
//*****************TRIM CUT*******************

G01 X2772.326 Y473.693 Z-673.381 A200.8038 B0.0 
g94
G104 X2729.689 Y461.421 Z-679.361 A200.8038 B0.0 I2740.75 J463.116 K-677.864
G104 X2707.467 Y459.928 Z-682.242 A200.8038 B0.0 I2718.595 J460.432 K-680.814
G104 X2636.538 Y459.658 Z-691.721 A200.8038 B0.0 I2660.838 J459.558 K-688.35
g94 y-1.7
G104 X2420.061 Y464.849 Z-726.521 A144.0488 B-21.8887 I2465.458 J462.636+1 K-718.545
G104 X2329.491 Y470.566 Z-743.167 A144.0488 B-21.8887 I2374.733 J467.235 K-734.773


//*****************TRIM CUT*******************
//G01 X2329.491 Y470.566 Z-743.167 A144.5903 B-20.1119
//$(SENSOR_LOCK)
//G01 X2329.491 Y470.566+20 Z-743.167+7 A144.5903 B-20.1119
//G01 X2329.791 Y470.546 Z-743.167 A144.5903 B-20.1119
//$(SENSOR_ON)(0.8)
//*****************TRIM CUT*******************


G94 y-2.7
G104 X2239.857 Y482.132 Z-759.451 A144.0488 B-21.8887 I2280.344 J475.857 K-752.244 
G104 X2152.198 Y503.876-0.3 Z-773.212 A144.0488 B-22.8887 I2195.738 J491.566 K-766.756
G104 X2147.706 Y505.753 Z-774.877 A144.0488 B-22.8887 I2148.887 J505.314 K-774.583

$(APPROACH_MC)(2147.706, 505.753, -774.877, 144.0488, -22.8887)

$(WORK_ON)(2,1)
G104 X2135.052 Y510.027 Z-776.56 A144.0177 B-23.0341 I2141.37 J507.859 K-775.729

//*****************TRIM CUT*******************
//G01 X2135.052 Y510.027 Z-776.56 A144.0177 B-23.0341
//$(SENSOR_LOCK)
//G01 X2135.052 Y510.027+17 Z-776.56+8 A144.0177 B-23.0341 
//G01 X2135.052 Y510.027 Z-776.56+.5 A144.0177 B-23.0341 
//G01 X2135.052 Y510.027 Z-776.56 A144.0177 B-23.0341 
//$(SENSOR_ON)(0.8)
//*****************TRIM CUT*******************

G104 X2127.904 Y506.807 Z-779.47 A144.0177 B-23.0341 I2128.969 J508.633 K-778.567 
g94
G104 X2123.471 Y493.297 Z-785.353 A143.9701 B-23.7227 I2125.685 J500.047 K-782.398 
G104 X2121.666 Y488.411 Z-785.08 A172.91 B29.6053 I2122.602 J490.808 K-785.811 
G01 X2108.709 Y457.167 Z-766.55 A163.463 B29.6812 
$(LH_ON)(0.1)
$(OPEN_CLAMPS) (8)
G104 X2105.667 Y448.385 Z-768.481 A154.9498 B-52.5884 I2106.192 J450.22 K-766.76 
$(CLOSE_CLAMPS) (5)
G104 X2103.628 Y439.309 Z-783.591 A157.1721 B-64.6946 I2104.49 J443.472 K-775.79 
G104 X2103.876 Y438.784 Z-788.811 A173.5659 B-106.2975 I2103.583 J438.591 K-786.163
G01 X2106.317 Y442.283 Z-802.65 A163.674 B-106.298 #(START_CL8_OPEN)
G104 X2106.75 Y442.304 Z-807.699 A159.9516 B-97.1945 I2106.644 J442.6 K-805.164 
$(CLOSE_CLAMPS) (6)
G104 X2106.775 Y430.78 Z-857.958 A159.9453 B-78.5901 I2106.703 J436.386 K-832.793
G104 X2112.782 Y427.471 Z-863.339 A160.5053 B-78.6859 I2108.567 J429.248 K-862.076
G104 X2126.311 Y423.252 Z-861.454 A161.7793 B-78.5455 I2119.536 J425.32 K-862.41
G104 X2130.907 Y420.777 Z-860.529 A162.2351 B-78.4722 I2129.609 J421.305 K-860.752
G104 X2177.598 Y409.185 Z-853.36 A166.1599 B-77.9147 I2154.159 J414.547 K-857.034 #(START_CL6_CLOSE)
$(LH_ON)(0.5)
$(WORK_ON)(5,2)
G104 X2182.82 Y409.309 Z-847.1 A166.5542 B-77.7055 I2182.735 J409.084 K-848.193
G104 X2182.423 Y412.82 Z-832.105 A166.5944 B-77.2978 I2182.615 J411.052 K-839.6
G104 X2187.653 Y413.091 Z-825.888 A173.2199 B-75.652 I2187.256 J413.131 K-825.96
G104 X2194.522 Y414.126 Z-825.384 A167.3923 B-77.0049 I2192.965 J414.173 K-825.572
G104 X2243.707 Y406.255 Z-817.298 A169.8129 B-76.4226 I2219.077 J409.909 K-821.389
G104 X2247.673 Y405.027 Z-816.443 A169.9618 B-76.3762 I2246.451 J405.296 K-816.678
G104 X2313.623 Y397.368 Z-805.016 A171.7195 B-75.6874 I2280.626 J400.911 K-810.797
$(LH_ON)(0.2) 
//*****************TRIM CUT*******************
//G01 X2313.623 Y397.368 Z-805.016 A171.7195 B-75.6874
//$(SENSOR_LOCK)
//G01 X2313.623 Y397.368-5 Z-805.016-15 A171.7195 B-75.6874 F120000
//G01 X2313.323 Y397.368-1 Z-805.016 A171.7195 B-75.6874
//G01 X2313.323 Y397.368 Z-805.016 A171.7195 B-75.6874
//F173000
//$(SENSOR_ON)(0.8)
//*****************TRIM CUT*******************
G104 X2318.322 Y397.683 Z-801.177 A171.8253 B-75.5559 I2316.475 J397.296 K-803.693
G104 X2330.291 Y396.544 Z-799.048 A172.0555 B-75.4402 I2327.391 J397.482 K-797.022
G104 X2335.876 Y395.243 Z-801.056 A172.149 B-75.4731 I2332.782 J395.741 K-800.792
$(LH_ON)(0.1)
G94 Z+1
G104 X=2482 Y=385.405 Z=-774.417 A=174.3452 B=-74.1245 I=2408.901 J=389.518 K=-787.833 
G104 X2486.706 Y386.088 Z-770.424 A174.4166 B-73.9847 I2484.903 J385.516 K-773.029
G104 X2498.885 Y385.561 Z-768.19 A174.5709 B-73.8724 I2497.555 J386.053 K-766.932
G104 X2504.626 Y384.417 Z-770.263 A174.6316 B-73.9167 I2501.44 J384.795 K-769.993
G94 Z+2
G104 X2661.056 Y380.712 Z-741.977 A176.3473 B-72.4813 I2582.804 J381.92 K-756.002
G104 X2665.819 Y381.716 Z-737.868 A176.4058 B-72.3309 I2664.032 J380.974 K-740.553
G104 X2678.225 Y381.65 Z-735.682 A176.5272 B-72.2171 I2676.888 J382.158 K-734.354
G104 X2684.094 Y380.58 Z-737.914 A176.5731 B-72.2704 I2680.814 J380.88 K-737.594
//*******NEW SCRAP CUT******************11_20_17
//G01 X2684.094 Y380.58 Z-737.914 A176.5731 B-72.2704
//$(SENSOR_LOCK)
//G01 X2684.094 Y380.58-5 Z-737.914-15 A176.5731 B-72.2704
//G01 X2684.094 Y380.58-.5 Z-737.914 A176.5731 B-72.2704
//G01 X2684.094 Y380.58 Z-737.914 A176.5731 B-72.2704
//$(SENSOR_ON)(0.8)
//*******NEW SCRAP CUT******************11_20_17
//G104 X2897.064 Y383.673 Z-702.308-0.8 A178.5894 B-70.321 I2790.521 J381.173 K-719.08
$(LH_OFF)
$(ACCURACY)(99)
G104 X2897.064 Y383.673 Z-702.308-0.4 A178.5894 B-70.321 I2790.521 J381.173 K-719.08
$(WORK_ON)(2,2)
G104 X2918.311 Y381.59 Z-706.763 A178.7542 B-70.3899 I2913.842 J382.373 K-704.842
$(ACCURACY)(0)
$(LH_ON)(0.2)
G104 X2926.787 Y379.756 Z-711.418 A178.8072 B-70.5136 I2922.6 J380.699 K-709.007
G104 X2935.751 Y376.524 Z-717.972 A178.8548 B-70.7061 I2934.379 J377.02 K-716.912
$(LH_ON)(0.2)
$(CLOSE_CLAMPS) (8)
G104 X2959.199 Y369.649 Z-736.607 A178.9743 B-71.2234 I2947.474 J373.06 K-727.281
G104 X2962.561 Y367.748 Z-742.048 A178.979 B-71.385 I2962.093 J368.277 K-740.505
G94 
G104 X2964.694 Y364.231 Z-752.471 A178.9514 B-71.7079 I2963.62 J365.982 K-747.258
G104 X2970.37 Y362.626 Z-757.03 A178.9799 B-71.8287 I2968.41 J362.79 K-756.639
G104 X2991.095 Y362.096 Z-757.615 A179.1545 B-71.7638 I2980.732 J362.354 K-757.32


//*****************TRIM CUT*******************
//G01 X2991.095 Y362.096 Z-757.615 A179.1545 B-71.7638
//$(SENSOR_LOCK)
//G01 X2991.095 Y362.096-3 Z-757.615-5 A179.1545 B-71.7638
//G01 X2991.095 Y362.096 Z-757.615+.5 A179.1545 B-71.7638
//G01 X2991.095 Y362.096 Z-757.615 A179.1545 B-71.7638
//$(SENSOR_ON)(0.8)
//*****************TRIM CUT*******************

G104 X2998.552 Y363.496 Z-753.074 A179.2388 B-71.5906 I2997.476 J362.842 K-755.085
//G104 X3007.349 Y374.73 Z-720.082 A179.4657 B-70.4861 I3002.89 J369.035 K-736.535
G104 X3008.934 Y376.755 Z-716.439 A179.4975 B-70.3503 I3008.61 J376.34 K-717.352
G01 X3011.123 Y379.55 Z-708.618 A179.5532 B-70.0777
G08
//G01 X3012.09 Y379.457 Z-708.855 A179.5532 B-70.0777
$(WORK_OFF)(2)
G09
F173000
$(RETRACT_MC)(3012.017,370.055,-705.448,179.5532,-70.0777)
//==========================END of Geometry.1
//$(CLOSE_CLAMPS) (8)
//==========================START of Geometry.1
G94
G01 X2984.785 Y366.104 Z-687.829 A179.388 B-69.7132#(START_CL8_CLOSE)
$(LH_ON)(0.3)
$(APPROACH_MC)(2984.985,384.863,-694.763,179.388,-69.7132)
G08
$(WORK_ON)(2,2)
G01 X2984.986 Y384.863 Z-694.763 A179.388 B-69.7132
G09
G104 X2969.469 Y381.692 Z-703.947 A179.21 B-70.0908 I2971.878 J380.804 K-706.313
G104 X2960.633 Y392.37 Z-675.526 A179.2628 B-69.1423 I2961.277 J389.548 K-682.961
G104 X2978.956 Y392.246 Z-675.3 A179.4258 B-69.0593 I2978.18 J393.475 K-672.119
G104 X2984.986 Y384.863 Z-694.763 A179.388 B-69.7132 I2982.448 J386.572 K-690.232
G08
G01 X2984.134 Y384.69 Z-695.256 A179.388 B-69.7132
$(LH_ON)(0.3)
$(WORK_OFF)(1)
G09
F173000
$(RETRACT_MC)(2984.033,375.311,-691.789,179.388,-69.7132)
G94
$(STOP_C_OFF)
//==========================END of Geometry.1
//==========================START of Geometry.1
$(SENSOR_ON)(1)
$(LH_ON)(0.1)
G94 z-.5 X+.4
G01 X3011.655 Y332.259 Z-692.303 A179.5532 B-70.0777
G01 X3011.948 Y369.864 Z-705.933 A179.5532 B-70.0777
$(APPROACH_MC)(3011.014,378.326,-705.999,179.5532,-70.0777)
G01 X3011.123 Y379.55 Z-708.618 A179.5532 B-70.0777
G08
$(WORK_ON)(2,2)
//G01 X3011.123-.2 Y379.55 Z-708.618-.2 A179.5532 B-70.0777
G09
//g94
G01 X3014.011 Y383.238 Z-698.484 A185.5532 B-35.0777 
G104 X=3017.246 Y=387.37 Z=-695.759 A=320 B=0.1 I3014.681 J383.965 K-697.228 LF=6000
G01 X=3039.68 Y=416.035 Z=-697.348 A=320 B=0.0 
$(SENSOR_LOCK)
G104 X=3040.931 Y=424.475+2 Z=-697.612 A=320 B=0.0 I=3040.91 J=420.471+2 K=-697.534 
(* G01 X=3035.016 Y=433.312 Z=-697.821+1 A=320 B=0.0 
G08
(* G01 X=3035.941 Y=433.689 Z=-697.858 A=320 B=0.0 
$(WORK_OFF)(1)
G09
F173000
$(RETRACT_MC)(3037.277, 433.413, -687.905, 320, 0.0)
$(CLOSE_CLAMPS)(99)
G94
//END of Geometry.1
//START of CIRCLE.6
$(SENSOR_ON)(1)
$(HOLE_ACCURACY)(1)
//********DO NOT G94 THIS DATUM GLOBAL SHIFT IT TO WERE IT NEEDS TO GO AND MOVE THE SMALL DATUM IF NEEDED
G01 X=3037.277 Y=433.413 Z=-575 A=320 B=0.0 
G01 X=2877.724 Y=462.066 Z=-575 A=320 B=0.0 
$(APPROACH_MC)(2877.724-0.6, 462.066, -629.152, 320, 0.0)
G08
$(WORK_ON)(2,2)
$(HOLE)(2884.874-0.6, 456.524, -629.152, 2885.408, 457.213, -609.171, 10.09, 10) //(orig rad 10.09)
$(WORK_OFF)(2)
G09
F173000
$(RETRACT_MC)(2876.934-0.6, 462.678, -580, 320, 0.0)
//END of CIRCLE.6

N101
N300
//$(ACCURACY)(0)
G100 Z10  
$(CLOSE_CLAMPS)(99)
g04 f800
$(SENSOR_OFF)
G93
$(LASER_OFF)


Q(utilities/COUNT_B.ISO)

OB96=0
OB97=0
OB98=0

OB109 = 1 //SIDE B PART PASS ON
OB110 = 1 //SIDE B PART COMPLETE ON 


M30

